src/icon/entity/contact-list/icon_contact-list_m_black.svg

<svg xmlns="http://www.w3.org/2000/svg" width="24" height="24" viewBox="0 0 24 24"><g fill="none" fill-rule="evenodd"><path d="M0 0h24v24H0z"/><path fill="#0B1F35" d="M22 23H4.5C3.1 23 2 22.1 2 21V2.5C2 1.1 3.1 0 4.5 0h17c.3 0 .5.2.5.5v19c0 .3-.2.5-.5.5h-17c-.8 0-1.5.5-1.5 1s.7 1 1.5 1H22v1zM4.5 1C3.7 1 3 1.7 3 2.5v16.9c.4-.3.9-.4 1.5-.4H21V1H4.5z"/><path fill="#0B1F35" d="M7 5h10v4H7zm0 6h8v2H7z" opacity=".25"/></g></svg>

<svg width="24px" height="24px" viewBox="0 0 24 24" version="1.1" xmlns="http://www.w3.org/2000/svg"><g stroke="none" stroke-width="1" fill="none" fill-rule="evenodd" transform="translate(-520.000000, -261.000000)"><g transform="translate(520.000000, 261.000000)"><rect x="0" y="0" width="24" height="24"/><path d="M22,23 L4.5,23 C3.1,23 2,22.1 2,21 L2,2.5 C2,1.1 3.1,0 4.5,0 L21.5,0 C21.8,0 22,0.2 22,0.5 L22,19.5 C22,19.8 21.8,20 21.5,20 L4.5,20 C3.7,20 3,20.5 3,21 C3,21.5 3.7,22 4.5,22 L22,22 L22,23 L22,23 Z M4.5,1 C3.7,1 3,1.7 3,2.5 L3,19.4 C3.4,19.1 3.9,19 4.5,19 L21,19 L21,1 L4.5,1 L4.5,1 Z" fill="#0B1F35"/><rect fill="#0B1F35" opacity="0.3" x="7" y="5" width="10" height="4"/><rect fill="#0B1F35" opacity="0.3" x="7" y="11" width="8" height="2"/></g></g></svg>
